blockchains/ethereum/assets/0xd26114cd6EE289AccF82350c8d8487fedB8A0C07/logo.svg

<svg fill="none" height="250" viewBox="0 0 250 250" width="250" xmlns="http://www.w3.org/2000/svg" xmlns:xlink="http://www.w3.org/1999/xlink"><clipPath id="a"><path d="m0 0h250v250h-250z"/></clipPath><g clip-path="url(#a)"><path d="m125 .654297c-68.7172 0-124.345459 55.628303-124.345459 124.345703 0 68.717 55.628259 124.345 124.345459 124.345 68.717 0 124.346-55.628 124.346-124.345 0-68.7174-55.629-124.345703-124.346-124.345703z" fill="#1a53f0"/><path d="m164.267 57.068c-18.455 0-33.377 14.9215-33.377 33.377 0 18.455 14.922 33.377 33.377 33.377 18.456 0 33.377-14.922 33.377-33.377 0-18.4555-14.921-33.377-33.377-33.377zm0 56.675c-12.827 0-23.298-10.471-23.298-23.298 0-12.8272 10.471-23.2984 23.298-23.2984s23.299 10.4712 23.299 23.2984c0 12.827-10.472 23.298-23.299 23.298zm-71.2041 14.529c-18.4555 0-33.377 14.922-33.377 33.377 0 18.456 14.9215 33.377 33.377 33.377 18.4551 0 33.3771-14.921 33.3771-33.377 0-18.455-14.922-33.377-33.3771-33.377zm0 56.676c-12.8272 0-23.2984-10.472-23.2984-23.299s10.4712-23.298 23.2984-23.298c12.8271 0 23.2981 10.471 23.2981 23.298s-10.471 23.299-23.2981 23.299zm33.3771-117.8014v-10.0786h-33.3771c-15.9686-.1309-29.5812 11.1257-32.7225 26.7016-3.1414 15.5759 5.1047 31.2824 19.7644 37.4344s31.6752 1.178 40.5762-11.911c8.9-13.0888 7.46-30.759-3.665-42.1464zm-33.3771 46.5964c-12.8272 0-23.2984-10.471-23.2984-23.298 0-12.8272 10.4712-23.2984 23.2984-23.2984 12.8271 0 23.2981 10.4712 23.2981 23.2984 0 12.827-10.471 23.298-23.2981 23.298z" fill="#fff"/></g></svg>

<svg width="250" height="250" viewBox="0 0 250 250" fill="none" xmlns="http://www.w3.org/2000/svg">
<g clip-path="url(#clip0_9_781)">
<path d="M125 0.654297C56.2828 0.654297 0.654541 56.2826 0.654541 125C0.654541 193.717 56.2828 249.345 125 249.345C193.717 249.345 249.346 193.717 249.346 125C249.346 56.2826 193.717 0.654297 125 0.654297Z" fill="#1A53F0"/>
<path d="M164.267 57.068C145.812 57.068 130.89 71.9895 130.89 90.445C130.89 108.9 145.812 123.822 164.267 123.822C182.723 123.822 197.644 108.9 197.644 90.445C197.644 71.9895 182.723 57.068 164.267 57.068ZM164.267 113.743C151.44 113.743 140.969 103.272 140.969 90.445C140.969 77.6178 151.44 67.1466 164.267 67.1466C177.094 67.1466 187.566 77.6178 187.566 90.445C187.566 103.272 177.094 113.743 164.267 113.743ZM93.0629 128.272C74.6074 128.272 59.6859 143.194 59.6859 161.649C59.6859 180.105 74.6074 195.026 93.0629 195.026C111.518 195.026 126.44 180.105 126.44 161.649C126.44 143.194 111.518 128.272 93.0629 128.272ZM93.0629 184.948C80.2357 184.948 69.7645 174.476 69.7645 161.649C69.7645 148.822 80.2357 138.351 93.0629 138.351C105.89 138.351 116.361 148.822 116.361 161.649C116.361 174.476 105.89 184.948 93.0629 184.948ZM126.44 67.1466V57.068H93.0629C77.0943 56.9371 63.4817 68.1937 60.3404 83.7696C57.199 99.3455 65.4451 115.052 80.1048 121.204C94.7645 127.356 111.78 122.382 120.681 109.293C129.581 96.2042 128.141 78.534 117.016 67.1466H126.44ZM93.0629 113.743C80.2357 113.743 69.7645 103.272 69.7645 90.445C69.7645 77.6178 80.2357 67.1466 93.0629 67.1466C105.89 67.1466 116.361 77.6178 116.361 90.445C116.361 103.272 105.89 113.743 93.0629 113.743Z" fill="white"/>
</g>
<defs>
<clipPath id="clip0_9_781">
<rect width="250" height="250" fill="white"/>
</clipPath>
</defs>
</svg>
